logos/adyen.svg

<?xml version="1.0" encoding="UTF-8"?>
<svg width="512px" height="166px" viewBox="0 0 512 166" version="1.1" xmlns="http://www.w3.org/2000/svg" xmlns:xlink="http://www.w3.org/1999/xlink" preserveAspectRatio="xMidYMid">
    <g>
        <path d="M72.2308021,37.6474205 C82.2397371,37.6474205 90.3535503,45.7612338 90.3535503,55.7701688 L90.3535503,127.999676 L18.1227482,127.999676 C8.11381329,127.999676 0,119.885863 0,109.876928 L0,89.6519411 C0,79.6430061 8.11381329,71.5291928 18.1227482,71.5291928 L37.6474205,71.5291928 L37.6474205,100.234332 C37.6474205,103.093842 39.9658378,105.41226 42.8253486,105.41226 L52.7061298,105.41226 L52.7061298,65.4127653 C52.7061298,62.5532545 50.3877125,60.2361317 47.5282018,60.2348372 L1.29448202,60.2348372 L1.29448202,37.6474205 L72.2308021,37.6474205 Z M158.115801,105.41226 L158.117095,0 L195.764516,0 L195.764516,127.999676 L123.535008,127.999676 C113.526073,127.999676 105.41226,119.885863 105.41226,109.876928 L105.41226,55.7701688 C105.41226,45.7612338 113.526073,37.6474205 123.535008,37.6474205 L143.057091,37.6474205 L143.057091,100.234332 C143.057091,103.093842 145.375509,105.41226 148.235019,105.41226 L158.115801,105.41226 Z M263.52806,105.41226 L263.52806,37.6474205 L301.176775,37.6474205 L301.176775,147.519171 C301.176775,157.528106 293.062962,165.641919 283.054027,165.641919 L212.117707,165.641919 L212.117707,139.294032 L263.529355,139.294032 L263.529355,127.999676 L228.945973,127.999676 C218.937038,127.999676 210.823225,119.885863 210.823225,109.876928 L210.823225,37.6474205 L248.469351,37.6474205 L248.469351,100.234332 C248.469351,103.093842 250.787768,105.41226 253.647279,105.41226 L263.52806,105.41226 Z M388.464992,37.6474205 C398.473927,37.6474205 406.58774,45.7612338 406.58774,55.7701688 L406.58774,75.9951558 C406.58774,86.0040908 398.473927,94.1179041 388.464992,94.1179041 L368.94032,94.1179041 L368.94032,65.4140598 C368.94032,62.554549 366.623197,60.2361317 363.762392,60.2361317 L353.881611,60.2361317 L353.881611,100.234332 C353.881611,103.093842 356.200028,105.41226 359.059539,105.41226 L405.293258,105.41226 L405.293258,127.999676 L334.358233,127.999676 C324.349298,127.999676 316.235484,119.885863 316.235484,109.876928 L316.235484,37.6474205 L388.464992,37.6474205 Z M493.877252,37.6474205 C503.886187,37.6474205 512,45.7612338 512,55.7701688 L512,127.999676 L474.352579,127.999676 L474.352579,65.4127653 C474.352579,62.5649049 472.022512,60.2348372 469.174651,60.2348372 L459.29387,60.2348372 L459.29387,127.999676 L421.64645,127.999676 L421.64645,37.6474205 L493.877252,37.6474205 Z" fill="#32AA52"></path>
    </g>
</svg>

<svg width="512" height="166" xmlns="http://www.w3.org/2000/svg" preserveAspectRatio="xMidYMid">
	<path d="M72.23 37.647c10.01 0 18.124 8.114 18.124 18.123V128H18.123C8.113 128 0 119.886 0 109.877V89.652c0-10.009 8.114-18.123 18.123-18.123h19.524v28.705a5.178 5.178 0 0 0 5.178 5.178h9.881v-40a5.179 5.179 0 0 0-5.178-5.177H1.294V37.647h70.937Zm85.886 67.765L158.117 0h37.648v128h-72.23c-10.009 0-18.123-8.114-18.123-18.123V55.77c0-10.009 8.114-18.123 18.123-18.123h19.522v62.587a5.178 5.178 0 0 0 5.178 5.178h9.88Zm105.412 0V37.647h37.649V147.52c0 10.01-8.114 18.123-18.123 18.123h-70.936v-26.348h51.411V128h-34.583c-10.009 0-18.123-8.114-18.123-18.123v-72.23h37.646v62.587a5.178 5.178 0 0 0 5.178 5.178h9.881Zm124.937-67.765c10.009 0 18.123 8.114 18.123 18.123v20.225c0 10.01-8.114 18.123-18.123 18.123H368.94V65.414a5.177 5.177 0 0 0-5.178-5.178h-9.88v39.998a5.178 5.178 0 0 0 5.178 5.178h46.233V128h-70.935c-10.009 0-18.123-8.114-18.123-18.123v-72.23h72.23Zm105.412 0c10.01 0 18.123 8.114 18.123 18.123V128h-37.647V65.413c0-2.848-2.33-5.178-5.178-5.178h-9.881V128h-37.648V37.647h72.231Z" fill="#32AA52"/>
</svg>
